client/public/assets/icons/utility/activity.svg

<?xml version="1.0" encoding="utf-8"?>
<svg version="1.1" id="Layer_1" xmlns="http://www.w3.org/2000/svg" xmlns:xlink="http://www.w3.org/1999/xlink" x="0px" y="0px"
   width="52px" height="52px" viewBox="0 0 52 52" enable-background="new 0 0 52 52" xml:space="preserve">
  <path fill="#FFFFFF" d="M37.6183889,11.6708207 C36.0775031,12.1695982 34.8346394,12.6500392 33.8951123,13.1080724 C33.147846,13.4723757 32.2082574,14.0094737 31.0807691,14.7177235 C31.1667725,16.5995452 31.1647549,18.1812026 31.0720049,19.471958 C30.978316,20.7757793 30.729548,22.6451414 30.3255443,25.1018792 L30.3249866,25.105271 C33.1402365,27.1333998 35.173105,28.6648537 36.4346442,29.7093742 C36.597726,29.8444015 37.0675113,30.2927661 37.290798,30.4915397 L41.6350875,28.6718336 L41.6630879,28.5983756 C42.2901352,27.2514509 42.8079954,25.4121018 43.2023354,23.090599 C43.5248028,21.1922141 43.5792329,19.1005349 43.3616438,16.8149992 L37.6183889,11.6708207 Z M36.1073454,9.01038791 L36.0232586,8.70752566 C33.0749193,6.986037 29.6504509,6 26,6 C24.0374305,6 22.1401787,6.28500358 20.3471163,6.81607115 L20.3150626,7.58570491 C20.3125153,8.13379545 20.3206789,8.75803253 20.3397186,9.45727659 C22.030077,9.69444512 23.4511913,10.0055978 24.6125132,10.3984154 C25.7797872,10.7932463 27.2652399,11.4679116 29.0912853,12.4265863 C30.4808345,11.5400042 31.6418165,10.8690679 32.5804736,10.4114588 C33.5274303,9.94980351 34.7018153,9.48372899 36.1073454,9.01038791 Z M22.1658519,42.9499501 C25.7837244,42.5723864 28.2398333,42.214337 29.482962,41.8897282 C30.9042374,41.5186013 32.1824292,41.1660586 33.3120912,40.8358599 C34.1722511,38.7935246 34.7220293,37.2603474 34.9614258,36.2363281 C35.1529949,35.4168907 35.358074,34.3134037 35.5766632,32.925867 C35.1941933,32.5878338 34.8423881,32.2858788 34.5214105,32.020118 C33.2642127,30.9791921 31.1392189,29.383038 28.1591705,27.2428861 C26.7773199,28.0516935 25.578361,28.6100352 24.5396119,28.9176686 C23.4183372,29.2497427 21.6839458,29.5217756 19.2831016,29.7528889 C18.4025226,31.6297547 17.8362807,33.1071422 17.5864096,34.166593 C17.3320659,35.2450077 17.0943845,36.7418674 16.8760063,38.6493017 C17.7547343,39.6657727 18.4980512,40.4228089 19.105957,40.9204102 C19.7335586,41.4341334 20.7535236,42.1106467 22.1658519,42.9499501 Z M9.43256002,37.3549805 C10.4237284,37.3549805 11.2036954,37.3549805 11.7724609,37.3549805 C12.303599,37.3549805 13.0495362,37.3549805 14.0102726,37.3549805 C14.2107696,35.7758361 14.428989,34.4850677 14.6665201,33.4779382 C14.9400638,32.3181157 15.4843529,30.8481997 16.300959,29.0539271 C15.2463486,27.8356974 13.9237556,26.2978223 13.3137207,25.3530273 C12.7899372,24.5418147 12.0001541,23.6495599 11.0966104,21.4542 C10.651234,21.5056018 10.2276481,21.6019315 9.82522217,21.7422911 C8.69828165,22.1353494 7.4686019,22.7868341 6.14148886,23.6996077 C6.04806598,24.4867321 6,25.2877674 6,26.1 C6,30.2689719 7.2662951,34.1429544 9.43256039,37.3549805 Z M45.3282868,31.2792284 C45.7664219,29.6266133 46,27.8905132 46,26.1 C46,25.6350746 45.9842513,25.1738179 45.9532621,24.716739 C45.6200985,26.3917813 45.2132523,27.8388302 44.727981,29.0612839 C44.8786702,29.3140128 45.0019766,29.5965634 45.0979004,29.9089355 C45.1992771,30.239065 45.2760726,30.6958293 45.3282868,31.2792284 Z M10.5692649,18.498153 L10.6995867,18.2850775 C12.1124354,15.9750781 13.2011371,14.3611242 14.0036047,13.4026373 C14.742741,12.519795 15.8565271,11.4530321 17.3603877,10.1773893 C17.332844,9.37002213 17.3176723,8.64228219 17.3150536,7.99292123 C12.5039581,10.3308697 8.76180348,14.5492227 7.0385821,19.6963229 C7.66999104,19.3766191 8.28734315,19.1113543 8.8910957,18.9007754 C9.43289222,18.7118056 9.99245388,18.577843 10.5692649,18.498153 Z M37.1536125,42.780843 C35.4462122,43.3682132 33.1445218,44.0342038 30.2409149,44.7924007 C28.8331282,45.1600054 26.3158719,45.5303223 22.6397944,45.9167706 C23.732491,46.1030135 24.8551317,46.2 26,46.2 C30.1272493,46.2 33.9656284,44.9395616 37.1536125,42.780843 Z M50,26.1 C50,39.4 39.2448133,50.2 26,50.2 C12.7551867,50.2 2,39.4 2,26.1 C2,12.8 12.7551867,2 26,2 C39.2448133,2 50,12.8 50,26.1 Z"/>
</svg>

<?xml version="1.0"?><svg xmlns="http://www.w3.org/2000/svg" width="52" height="52" viewBox="0 0 52 52"><path fill="#fff" d="m37.6 11.7c-1.5 0.5-2.8 1-3.7 1.4-0.8 0.4-1.7 0.9-2.8 1.6 0.1 1.9 0.1 3.5 0 4.8-0.1 1.3-0.4 3.1-0.8 5.6v0c2.8 2 4.9 3.6 6.1 4.6 0.2 0.1 0.7 0.6 0.9 0.8l4.3-1.8 0.1-0.1c0.6-1.4 1.1-3.2 1.5-5.5 0.3-1.9 0.4-4 0.2-6.3l-5.8-5.1z m-1.5-2.7l-0.1-0.3c-2.9-1.7-6.4-2.7-10-2.7-2 0-3.9 0.3-5.7 0.8l0 0.8c0 0.5 0 1.2 0 1.9 1.7 0.2 3.1 0.5 4.3 0.9 1.2 0.4 2.7 1.1 4.5 2 1.4-0.9 2.5-1.5 3.5-2 0.9-0.4 2.1-0.9 3.5-1.4z m-13.9 34c3.6-0.4 6-0.8 7.3-1.1 1.4-0.4 2.7-0.7 3.8-1.1 0.9-2 1.4-3.5 1.7-4.6 0.2-0.8 0.4-1.9 0.6-3.3-0.4-0.3-0.8-0.6-1.1-0.9-1.2-1-3.4-2.6-6.3-4.8-1.4 0.9-2.6 1.4-3.7 1.7-1.1 0.3-2.8 0.6-5.2 0.9-0.9 1.8-1.5 3.3-1.7 4.4-0.3 1-0.5 2.5-0.7 4.4 0.9 1.1 1.6 1.8 2.2 2.3 0.6 0.5 1.7 1.2 3.1 2z m-12.8-5.6h4.6c0.2-1.6 0.4-2.9 0.7-3.9 0.2-1.2 0.8-2.7 1.6-4.4-1.1-1.3-2.4-2.8-3-3.7-0.5-0.9-1.3-1.8-2.2-3.9-0.4 0-0.9 0.1-1.3 0.2-1.1 0.4-2.3 1.1-3.7 2-0.1 0.8-0.1 1.6-0.1 2.4 0 4.2 1.3 8 3.4 11.3z m35.9-6.1c0.5-1.7 0.7-3.4 0.7-5.2 0-0.5 0-0.9 0-1.4-0.4 1.7-0.8 3.1-1.3 4.4 0.2 0.2 0.3 0.5 0.4 0.8 0.1 0.3 0.2 0.8 0.2 1.4z m-34.7-12.8l0.1-0.2c1.4-2.3 2.5-3.9 3.3-4.9 0.7-0.9 1.9-1.9 3.4-3.2-0.1-0.8-0.1-1.6-0.1-2.2-4.8 2.3-8.5 6.5-10.3 11.7 0.7-0.3 1.3-0.6 1.9-0.8 0.5-0.2 1.1-0.3 1.7-0.4z m26.6 24.3c-1.8 0.6-4.1 1.2-7 2-1.4 0.4-3.9 0.7-7.6 1.1 1.1 0.2 2.3 0.3 3.4 0.3 4.1 0 8-1.3 11.2-3.4z m12.8-16.7c0 13.3-10.8 24.1-24 24.1s-24-10.8-24-24.1 10.8-24.1 24-24.1 24 10.8 24 24.1z"></path></svg>
